; G-Code generated by Simplify3D(R) Version 4.1.2
; Jul 2, 2019 at 4:19:10 PM
; Settings Summary
;   processName,Process1
;   applyToModels,capot_elec
;   profileName,Ultimaker 2 PC-Max cansat (modified)
;   profileVersion,2019-06-30 12:00:19
;   baseProfile,Ultimaker 2
;   printMaterial,
;   printQuality,
;   printExtruders,
;   extruderName,Primary Extruder
;   extruderToolheadNumber,0
;   extruderDiameter,0.4
;   extruderAutoWidth,1
;   extruderWidth,0.48
;   extrusionMultiplier,1
;   extruderUseRetract,1
;   extruderRetractionDistance,6
;   extruderExtraRestartDistance,0
;   extruderRetractionZLift,0
;   extruderRetractionSpeed,2500
;   extruderUseCoasting,1
;   extruderCoastingDistance,1
;   extruderUseWipe,0
;   extruderWipeDistance,2
;   primaryExtruder,0
;   layerHeight,0.2
;   topSolidLayers,3
;   bottomSolidLayers,2
;   perimeterOutlines,2
;   printPerimetersInsideOut,1
;   startPointOption,3
;   startPointOriginX,110
;   startPointOriginY,110
;   sequentialIslands,0
;   spiralVaseMode,0
;   firstLayerHeightPercentage,70
;   firstLayerWidthPercentage,90
;   firstLayerUnderspeed,0.5
;   useRaft,0
;   raftExtruder,0
;   raftTopLayers,3
;   raftBaseLayers,2
;   raftOffset,3
;   raftSeparationDistance,0.14
;   raftTopInfill,100
;   aboveRaftSpeedMultiplier,0.3
;   useSkirt,1
;   skirtExtruder,0
;   skirtLayers,1
;   skirtOutlines,2
;   skirtOffset,4
;   usePrimePillar,0
;   primePillarExtruder,999
;   primePillarWidth,12
;   primePillarLocation,7
;   primePillarSpeedMultiplier,1
;   useOozeShield,0
;   oozeShieldExtruder,999
;   oozeShieldOffset,2
;   oozeShieldOutlines,1
;   oozeShieldSidewallShape,1
;   oozeShieldSidewallAngle,30
;   oozeShieldSpeedMultiplier,1
;   infillExtruder,0
;   internalInfillPattern,Rectilinear
;   externalInfillPattern,Rectilinear
;   infillPercentage,20
;   outlineOverlapPercentage,35
;   infillExtrusionWidthPercentage,125
;   minInfillLength,3
;   infillLayerInterval,1
;   internalInfillAngles,45,-45
;   overlapInternalInfillAngles,0
;   externalInfillAngles,45,-45
;   generateSupport,0
;   supportExtruder,0
;   supportInfillPercentage,35
;   supportExtraInflation,2
;   supportBaseLayers,0
;   denseSupportExtruder,0
;   denseSupportLayers,0
;   denseSupportInfillPercentage,70
;   supportLayerInterval,1
;   supportHorizontalPartOffset,0.3
;   supportUpperSeparationLayers,1
;   supportLowerSeparationLayers,1
;   supportType,1
;   supportGridSpacing,1
;   maxOverhangAngle,50
;   supportAngles,45
;   temperatureName,Primary Extruder,Heated Build Platform
;   temperatureNumber,0,1
;   temperatureSetpointCount,1,1
;   temperatureSetpointLayers,1,1
;   temperatureSetpointTemperatures,265,115
;   temperatureStabilizeAtStartup,1,1
;   temperatureHeatedBed,0,1
;   fanLayers,1
;   fanSpeeds,80
;   blipFanToFullPower,0
;   adjustSpeedForCooling,1
;   minSpeedLayerTime,15
;   minCoolingSpeedSlowdown,20
;   increaseFanForCooling,0
;   minFanLayerTime,10
;   maxCoolingFanSpeed,30
;   increaseFanForBridging,1
;   bridgingFanSpeed,100
;   use5D,1
;   relativeEdistances,0
;   allowEaxisZeroing,1
;   independentExtruderAxes,0
;   includeM10123,0
;   stickySupport,1
;   applyToolheadOffsets,0
;   gcodeXoffset,0
;   gcodeYoffset,0
;   gcodeZoffset,0
;   overrideMachineDefinition,1
;   machineTypeOverride,0
;   strokeXoverride,230
;   strokeYoverride,225
;   strokeZoverride,205
;   originOffsetXoverride,0
;   originOffsetYoverride,0
;   originOffsetZoverride,0
;   homeXdirOverride,-1
;   homeYdirOverride,-1
;   homeZdirOverride,-1
;   flipXoverride,1
;   flipYoverride,-1
;   flipZoverride,1
;   toolheadOffsets,0,0|0,0|0,0|0,0|0,0|0,0
;   overrideFirmwareConfiguration,1
;   firmwareTypeOverride,RepRap (Marlin/Repetier/Sprinter)
;   GPXconfigOverride,r2
;   baudRateOverride,250000
;   overridePrinterModels,0
;   printerModelsOverride
;   startingGcode,M907 E1400 ; increase extruder current,G28 ; home all axes,G1 X20 Y10 F3000 ; bring extruder to front,G92 E0 ; zero the extruded length,G1 Z1 ; lower,G1 X35 E30 F225 ; purge nozzle with 30mm of filament,G1 X45 Y20 F2100,G92 E0 ; zero the extruded length again
;   layerChangeGcode,
;   retractionGcode,
;   toolChangeGcode,
;   endingGcode,G28 X0 ; home the X-axis,M104 S0 ; turn off heaters,M140 S0 ; turn off bed,M84 ; disable motors
;   exportFileFormat,gcode
;   celebration,0
;   celebrationSong,Random Song
;   postProcessing,
;   defaultSpeed,2000
;   outlineUnderspeed,0.85
;   solidInfillUnderspeed,0.7
;   supportUnderspeed,0.7
;   rapidXYspeed,6000
;   rapidZspeed,1000
;   minBridgingArea,5
;   bridgingExtraInflation,0
;   bridgingExtrusionMultiplier,1
;   bridgingSpeedMultiplier,0.5
;   useFixedBridgingAngle,0
;   fixedBridgingAngle,0
;   applyBridgingToPerimeters,0
;   filamentDiameters,2.85|2.85|2.85|2.85|2.85|2.85
;   filamentPricesPerKg,46|46|46|46|46|46
;   filamentDensities,1.25|1.25|1.25|1.25|1.25|1.25
;   useMinPrintHeight,0
;   minPrintHeight,0
;   useMaxPrintHeight,0
;   maxPrintHeight,6
;   useDiaphragm,0
;   diaphragmLayerInterval,20
;   robustSlicing,1
;   mergeAllIntoSolid,0
;   onlyRetractWhenCrossingOutline,0
;   retractBetweenLayers,0
;   useRetractionMinTravel,1
;   retractionMinTravel,0.02
;   retractWhileWiping,0
;   onlyWipeOutlines,0
;   avoidCrossingOutline,0
;   maxMovementDetourFactor,3
;   toolChangeRetractionDistance,12
;   toolChangeExtraRestartDistance,-0.5
;   toolChangeRetractionSpeed,600
;   externalThinWallType,0
;   internalThinWallType,2
;   thinWallAllowedOverlapPercentage,10
;   singleExtrusionMinLength,1
;   singleExtrusionMinPrintingWidthPercentage,50
;   singleExtrusionMaxPrintingWidthPercentage,200
;   singleExtrusionEndpointExtension,0.2
;   horizontalSizeCompensation,0
G90
M82
M106 S204
M140 S115
M190 S115
M104 S265 T0
M109 S265 T0
M907 E1400 ; increase extruder current
G28 ; home all axes
G1 X20 Y10 F3000 ; bring extruder to front
G92 E0 ; zero the extruded length
G1 Z1 ; lower
G1 X35 E30 F225 ; purge nozzle with 30mm of filament
G1 X45 Y20 F2100
G92 E0 ; zero the extruded length again
; process Process1
; layer 1, Z = 0.140
T0
G92 E0.0000
G1 E-6.0000 F2500
; feature skirt
; tool H0.140 W0.432
G1 Z0.140 F1000
G1 X110.328 Y100.861 F6000
G1 E0.0000 F2500
G92 E0.0000
G1 X111.882 Y100.995 E0.0148 F1000
G1 X113.440 Y101.075 E0.0296
G1 X115.000 Y101.101 E0.0444
G1 X116.560 Y101.075 E0.0592
G1 X118.118 Y100.995 E0.0740
G1 X119.673 Y100.861 E0.0887
G1 X121.222 Y100.675 E0.1035
G1 X122.764 Y100.436 E0.1183
G1 X124.296 Y100.144 E0.1331
G1 X125.818 Y99.800 E0.1479
G1 X127.327 Y99.404 E0.1627
G1 X128.822 Y98.956 E0.1775
G1 X130.300 Y98.458 E0.1923
G1 X131.761 Y97.909 E0.2071
G1 X133.202 Y97.311 E0.2219
G1 X134.622 Y96.664 E0.2367
G1 X136.019 Y95.968 E0.2515
G1 X137.390 Y95.226 E0.2662
G1 X138.737 Y94.437 E0.2810
G1 X140.054 Y93.602 E0.2958
G1 X141.343 Y92.723 E0.3106
G1 X143.263 Y91.314 E0.3332
G1 X144.673 Y90.852 E0.3473
G1 X156.925 Y90.852 E0.4634
G1 X159.648 Y93.575 E0.4999
G1 X159.648 Y131.425 E0.8588
G1 X156.925 Y134.148 E0.8953
G1 X73.075 Y134.148 E1.6902
G1 X70.352 Y131.425 E1.7267
G1 X70.352 Y93.575 E2.0856
G1 X73.075 Y90.852 E2.1221
G1 X85.327 Y90.852 E2.2382
G1 X86.737 Y91.314 E2.2523
G1 X88.657 Y92.723 E2.2749
G1 X89.946 Y93.602 E2.2897
G1 X91.264 Y94.437 E2.3045
G1 X92.610 Y95.226 E2.3192
G1 X93.981 Y95.968 E2.3340
G1 X95.379 Y96.664 E2.3488
G1 X96.798 Y97.311 E2.3636
G1 X98.239 Y97.909 E2.3784
G1 X99.700 Y98.458 E2.3932
G1 X101.178 Y98.956 E2.4080
G1 X102.673 Y99.404 E2.4228
G1 X104.182 Y99.800 E2.4376
G1 X105.704 Y100.144 E2.4524
G1 X107.236 Y100.436 E2.4672
G1 X108.778 Y100.675 E2.4820
G1 X110.328 Y100.861 E2.4968
G92 E0.0000
G1 E-6.0000 F2500
G1 X110.283 Y101.291 F6000
G1 E0.0000 F2500
G92 E0.0000
G1 X111.852 Y101.426 E0.0149 F1000
G1 X113.425 Y101.506 E0.0299
G1 X115.000 Y101.533 E0.0448
G1 X116.575 Y101.506 E0.0597
G1 X118.148 Y101.426 E0.0747
G1 X119.717 Y101.291 E0.0896
G1 X121.280 Y101.103 E0.1045
G1 X122.837 Y100.861 E0.1195
G1 X124.384 Y100.567 E0.1344
G1 X125.921 Y100.219 E0.1493
G1 X127.444 Y99.820 E0.1642
G1 X128.953 Y99.368 E0.1792
G1 X130.445 Y98.865 E0.1941
G1 X131.920 Y98.311 E0.2090
G1 X133.374 Y97.707 E0.2240
G1 X134.808 Y97.054 E0.2389
G1 X136.218 Y96.352 E0.2538
G1 X137.602 Y95.602 E0.2688
G1 X138.961 Y94.806 E0.2837
G1 X140.292 Y93.963 E0.2986
G1 X141.593 Y93.075 E0.3136
G1 X143.463 Y91.703 E0.3356
G1 X144.742 Y91.284 E0.3483
G1 X156.746 Y91.284 E0.4621
G1 X159.216 Y93.754 E0.4952
G1 X159.216 Y131.246 E0.8507
G1 X156.746 Y133.716 E0.8838
G1 X73.254 Y133.716 E1.6754
G1 X70.784 Y131.246 E1.7085
G1 X70.784 Y93.754 E2.0639
G1 X73.254 Y91.284 E2.0970
G1 X85.258 Y91.284 E2.2108
G1 X86.537 Y91.703 E2.2236
G1 X88.407 Y93.075 E2.2456
G1 X89.708 Y93.963 E2.2605
G1 X91.039 Y94.806 E2.2754
G1 X92.397 Y95.602 E2.2904
G1 X93.782 Y96.352 E2.3053
G1 X95.193 Y97.054 E2.3202
G1 X96.626 Y97.707 E2.3352
G1 X98.081 Y98.311 E2.3501
G1 X99.555 Y98.865 E2.3650
G1 X101.047 Y99.368 E2.3800
G1 X102.556 Y99.820 E2.3949
G1 X104.079 Y100.219 E2.4098
G1 X105.616 Y100.567 E2.4248
G1 X107.163 Y100.861 E2.4397
G1 X108.719 Y101.103 E2.4546
G1 X110.283 Y101.291 E2.4696
G92 E0.0000
G1 E-6.0000 F2500
; feature inner perimeter
G1 X109.785 Y106.130 F6000
G1 E0.0000 F2500
G92 E0.0000
G1 X111.520 Y106.279 E0.0165 F925
G1 X113.259 Y106.368 E0.0330
G1 X115.000 Y106.398 E0.0495
G1 X116.741 Y106.368 E0.0660
G1 X118.480 Y106.279 E0.0825
G1 X120.215 Y106.130 E0.0991
G1 X121.945 Y105.922 E0.1156
G1 X123.665 Y105.655 E0.1321
G1 X125.376 Y105.329 E0.1486
G1 X127.075 Y104.945 E0.1651
G1 X128.759 Y104.503 E0.1816
G1 X130.427 Y104.004 E0.1981
G1 X132.077 Y103.448 E0.2146
G1 X133.708 Y102.835 E0.2311
G1 X135.316 Y102.168 E0.2476
G1 X136.901 Y101.445 E0.2642
G1 X138.460 Y100.669 E0.2807
G1 X139.991 Y99.840 E0.2972
G1 X141.494 Y98.959 E0.3137
G1 X142.964 Y98.028 E0.3302
G1 X144.403 Y97.046 E0.3467
G1 X145.627 Y96.148 E0.3611
G1 X154.352 Y96.148 E0.4438
G1 X154.352 Y128.852 E0.7539
G1 X75.648 Y128.852 E1.5000
G1 X75.648 Y96.148 E1.8101
G1 X84.373 Y96.148 E1.8928
G1 X85.597 Y97.046 E1.9072
G1 X87.036 Y98.028 E1.9237
G1 X88.507 Y98.959 E1.9402
G1 X90.009 Y99.840 E1.9567
G1 X91.540 Y100.669 E1.9732
G1 X93.099 Y101.445 E1.9897
G1 X94.684 Y102.168 E2.0062
G1 X96.292 Y102.835 E2.0228
G1 X97.923 Y103.448 E2.0393
G1 X99.573 Y104.004 E2.0558
G1 X101.241 Y104.503 E2.0723
G1 X102.925 Y104.945 E2.0888
G1 X104.624 Y105.329 E2.1053
G1 X106.335 Y105.655 E2.1218
G1 X108.055 Y105.922 E2.1383
G1 X108.792 Y106.011 E2.1453
G1 X109.785 Y106.130 F925
G92 E0.0000
G1 E-6.0000 F2500
; feature outer perimeter
G1 X109.829 Y105.700 F6000
G1 E0.0000 F2500
G92 E0.0000
G1 X111.549 Y105.848 E0.0164 F850
G1 X113.274 Y105.936 E0.0327
G1 X115.000 Y105.966 E0.0491
G1 X116.726 Y105.936 E0.0655
G1 X118.451 Y105.848 E0.0818
G1 X120.171 Y105.700 E0.0982
G1 X121.885 Y105.494 E0.1146
G1 X123.592 Y105.229 E0.1310
G1 X125.288 Y104.906 E0.1473
G1 X126.972 Y104.525 E0.1637
G1 X128.642 Y104.087 E0.1801
G1 X130.296 Y103.592 E0.1964
G1 X131.933 Y103.041 E0.2128
G1 X133.549 Y102.434 E0.2292
G1 X135.144 Y101.772 E0.2455
G1 X136.715 Y101.055 E0.2619
G1 X138.261 Y100.286 E0.2783
G1 X139.779 Y99.464 E0.2947
G1 X141.268 Y98.590 E0.3110
G1 X142.727 Y97.667 E0.3274
G1 X144.153 Y96.693 E0.3438
G1 X145.486 Y95.716 E0.3594
G1 X154.784 Y95.716 E0.4476
G1 X154.784 Y129.284 E0.7658
G1 X75.216 Y129.284 E1.5202
G1 X75.216 Y95.716 E1.8384
G1 X84.514 Y95.716 E1.9266
G1 X85.847 Y96.693 E1.9422
G1 X87.273 Y97.667 E1.9586
G1 X88.732 Y98.590 E1.9750
G1 X90.221 Y99.464 E1.9913
G1 X91.739 Y100.286 E2.0077
G1 X93.285 Y101.055 E2.0241
G1 X94.856 Y101.772 E2.0404
G1 X96.451 Y102.434 E2.0568
G1 X98.067 Y103.041 E2.0732
G1 X99.704 Y103.592 E2.0896
G1 X101.358 Y104.087 E2.1059
G1 X103.028 Y104.525 E2.1223
G1 X104.712 Y104.906 E2.1387
G1 X106.408 Y105.229 E2.1550
G1 X108.115 Y105.494 E2.1714
G1 X108.836 Y105.581 E2.1783
G1 X109.829 Y105.700 F850
G92 E0.0000
G1 E-6.0000 F2500
; feature inner perimeter
G1 X115.922 Y113.422 F6000
G1 E0.0000 F2500
G92 E0.0000
G1 X115.922 Y115.102 E0.0159 F925
G1 X104.852 Y115.102 E0.1209
G1 X104.852 Y121.398 E0.1806
G1 X116.148 Y121.398 E0.2877
G1 X116.148 Y120.578 E0.2954
G1 X126.622 Y120.578 E0.3947
G1 X126.622 Y127.078 E0.4564
G1 X137.878 Y127.078 E0.5631
G1 X137.878 Y119.922 E0.6309
G1 X128.078 Y119.922 E0.7238
G1 X128.078 Y113.422 E0.7854
G1 X116.922 Y113.422 E0.8912
G1 X115.922 Y113.422 F925
G92 E0.0000
G1 E-6.0000 F2500
; feature outer perimeter
G1 X116.354 Y113.854 F6000
G1 E0.0000 F2500
G92 E0.0000
G1 X116.354 Y120.146 E0.0597 F850
G1 X127.646 Y120.146 E0.1667
G1 X127.646 Y113.854 E0.2264
G1 X117.354 Y113.854 E0.3239
G1 X116.354 Y113.854 F850
G92 E0.0000
G1 E-6.0000 F2500
G1 X115.716 Y115.534 F6000
G1 E0.0000 F2500
G92 E0.0000
G1 X105.284 Y115.534 E0.0989 F850
G1 X105.284 Y120.966 E0.1504
G1 X115.716 Y120.966 E0.2493
G1 X115.716 Y116.534 E0.2913
G1 X115.716 Y115.534 F850
G92 E0.0000
G1 E-6.0000 F2500
G1 X127.054 Y120.354 F6000
G1 E0.0000 F2500
G92 E0.0000
G1 X127.054 Y126.646 E0.0597 F850
G1 X137.446 Y126.646 E0.1582
G1 X137.446 Y120.354 E0.2178
G1 X128.054 Y120.354 E0.3069
G1 X127.054 Y120.354 F850
G92 E0.0000
G1 E-6.0000 F2500
; feature inner perimeter
G1 X147.931 Y101.041 F6000
G1 E0.0000 F2500
G92 E0.0000
G1 X148.178 Y101.259 E0.0031 F925
G1 X148.576 Y101.498 E0.0075
G1 X149.016 Y101.647 E0.0119
G1 X149.359 Y101.696 E0.0152
G1 X149.817 Y101.679 E0.0196
G1 X150.278 Y101.560 E0.0241
G1 X150.703 Y101.344 E0.0286
G1 X151.062 Y101.050 E0.0330
G1 X151.283 Y100.790 E0.0362
G1 X151.515 Y100.388 E0.0406
G1 X151.655 Y99.946 E0.0450
G1 X151.698 Y99.607 E0.0483
G1 X151.673 Y99.144 E0.0527
G1 X151.545 Y98.685 E0.0572
G1 X151.328 Y98.275 E0.0616
G1 X151.124 Y98.016 E0.0647
G1 X150.885 Y97.790 E0.0678
G1 X150.496 Y97.536 E0.0722
G1 X150.051 Y97.368 E0.0767
G1 X149.591 Y97.301 E0.0811
G1 X149.250 Y97.314 E0.0844
G1 X148.797 Y97.413 E0.0888
G1 X148.365 Y97.613 E0.0933
G1 X147.986 Y97.902 E0.0978
G1 X147.678 Y98.264 E0.1023
G1 X147.460 Y98.675 E0.1067
G1 X147.357 Y99.000 E0.1099
G1 X147.299 Y99.460 E0.1143
G1 X147.341 Y99.934 E0.1189
G1 X147.423 Y100.191 E0.1214
G1 X147.485 Y100.388 F925
G1 X147.717 Y100.790
G1 X147.931 Y101.041
G92 E0.0000
G1 E-6.0000 F2500
; feature outer perimeter
G1 X148.240 Y100.738 F6000
G1 E0.0000 F2500
G92 E0.0000
G1 X148.434 Y100.909 E0.0025 F850
G1 X148.758 Y101.104 E0.0060
G1 X149.117 Y101.225 E0.0096
G1 X149.382 Y101.263 E0.0122
G1 X149.755 Y101.249 E0.0157
G1 X150.124 Y101.153 E0.0193
G1 X150.465 Y100.980 E0.0229
G1 X150.758 Y100.741 E0.0265
G1 X150.928 Y100.541 E0.0290
G1 X151.117 Y100.213 E0.0326
G1 X151.231 Y99.852 E0.0362
G1 X151.264 Y99.592 E0.0387
G1 X151.244 Y99.214 E0.0423
G1 X151.142 Y98.846 E0.0459
G1 X150.965 Y98.512 E0.0495
G1 X150.804 Y98.308 E0.0519
G1 X150.616 Y98.130 E0.0544
G1 X150.299 Y97.924 E0.0580
G1 X149.942 Y97.789 E0.0616
G1 X149.568 Y97.734 E0.0652
G1 X149.305 Y97.744 E0.0677
G1 X148.936 Y97.825 E0.0713
G1 X148.589 Y97.986 E0.0749
G1 X148.285 Y98.217 E0.0785
G1 X148.037 Y98.508 E0.0821
G1 X147.860 Y98.842 E0.0857
G1 X147.781 Y99.093 E0.0882
G1 X147.733 Y99.468 E0.0918
G1 X147.767 Y99.849 E0.0954
G1 X147.773 Y99.867 E0.0956
G1 X147.883 Y100.213 F850
G1 X148.072 Y100.541
G1 X148.240 Y100.738
G92 E0.0000
G1 E-6.0000 F2500
; feature inner perimeter
G1 X82.684 Y99.778 F6000
G1 E0.0000 F2500
G92 E0.0000
G1 X82.693 Y99.301 E0.0045 F925
G1 X82.599 Y98.835 E0.0090
G1 X82.407 Y98.399 E0.0135
G1 X82.133 Y98.024 E0.0179
G1 X81.894 Y97.798 E0.0211
G1 X81.624 Y97.608 E0.0242
G1 X81.203 Y97.413 E0.0286
G1 X80.738 Y97.311 E0.0331
G1 X80.262 Y97.311 E0.0376
