; G-Code generated by Simplify3D(R) Version 4.1.2
; May 27, 2019 at 8:36:44 AM
; Settings Summary
;   processName,Process1
;   applyToModels,porte
;   profileName,Ultimaker 2 PC-Max
;   profileVersion,2019-05-26 18:33:53
;   baseProfile,Ultimaker 2
;   printMaterial,
;   printQuality,
;   printExtruders,
;   extruderName,Primary Extruder
;   extruderToolheadNumber,0
;   extruderDiameter,0.4
;   extruderAutoWidth,1
;   extruderWidth,0.48
;   extrusionMultiplier,1
;   extruderUseRetract,1
;   extruderRetractionDistance,6
;   extruderExtraRestartDistance,0
;   extruderRetractionZLift,0
;   extruderRetractionSpeed,2500
;   extruderUseCoasting,1
;   extruderCoastingDistance,1
;   extruderUseWipe,0
;   extruderWipeDistance,2
;   primaryExtruder,0
;   layerHeight,0.2
;   topSolidLayers,3
;   bottomSolidLayers,2
;   perimeterOutlines,2
;   printPerimetersInsideOut,1
;   startPointOption,3
;   startPointOriginX,110
;   startPointOriginY,110
;   sequentialIslands,0
;   spiralVaseMode,0
;   firstLayerHeightPercentage,70
;   firstLayerWidthPercentage,90
;   firstLayerUnderspeed,0.5
;   useRaft,0
;   raftExtruder,0
;   raftTopLayers,3
;   raftBaseLayers,2
;   raftOffset,3
;   raftSeparationDistance,0.14
;   raftTopInfill,100
;   aboveRaftSpeedMultiplier,0.3
;   useSkirt,1
;   skirtExtruder,0
;   skirtLayers,1
;   skirtOutlines,2
;   skirtOffset,4
;   usePrimePillar,0
;   primePillarExtruder,999
;   primePillarWidth,12
;   primePillarLocation,7
;   primePillarSpeedMultiplier,1
;   useOozeShield,0
;   oozeShieldExtruder,999
;   oozeShieldOffset,2
;   oozeShieldOutlines,1
;   oozeShieldSidewallShape,1
;   oozeShieldSidewallAngle,30
;   oozeShieldSpeedMultiplier,1
;   infillExtruder,0
;   internalInfillPattern,Rectilinear
;   externalInfillPattern,Rectilinear
;   infillPercentage,25
;   outlineOverlapPercentage,35
;   infillExtrusionWidthPercentage,125
;   minInfillLength,3
;   infillLayerInterval,1
;   internalInfillAngles,45,-45
;   overlapInternalInfillAngles,0
;   externalInfillAngles,45,-45
;   generateSupport,1
;   supportExtruder,0
;   supportInfillPercentage,40
;   supportExtraInflation,2
;   supportBaseLayers,0
;   denseSupportExtruder,0
;   denseSupportLayers,0
;   denseSupportInfillPercentage,70
;   supportLayerInterval,1
;   supportHorizontalPartOffset,0.3
;   supportUpperSeparationLayers,1
;   supportLowerSeparationLayers,1
;   supportType,1
;   supportGridSpacing,1
;   maxOverhangAngle,50
;   supportAngles,0
;   temperatureName,Primary Extruder,Heated Build Platform
;   temperatureNumber,0,1
;   temperatureSetpointCount,1,1
;   temperatureSetpointLayers,1,1
;   temperatureSetpointTemperatures,265,115
;   temperatureStabilizeAtStartup,1,1
;   temperatureHeatedBed,0,1
;   fanLayers,1
;   fanSpeeds,80
;   blipFanToFullPower,0
;   adjustSpeedForCooling,1
;   minSpeedLayerTime,15
;   minCoolingSpeedSlowdown,20
;   increaseFanForCooling,0
;   minFanLayerTime,10
;   maxCoolingFanSpeed,30
;   increaseFanForBridging,1
;   bridgingFanSpeed,100
;   use5D,1
;   relativeEdistances,0
;   allowEaxisZeroing,1
;   independentExtruderAxes,0
;   includeM10123,0
;   stickySupport,1
;   applyToolheadOffsets,0
;   gcodeXoffset,0
;   gcodeYoffset,0
;   gcodeZoffset,0
;   overrideMachineDefinition,1
;   machineTypeOverride,0
;   strokeXoverride,230
;   strokeYoverride,225
;   strokeZoverride,205
;   originOffsetXoverride,0
;   originOffsetYoverride,0
;   originOffsetZoverride,0
;   homeXdirOverride,-1
;   homeYdirOverride,-1
;   homeZdirOverride,-1
;   flipXoverride,1
;   flipYoverride,-1
;   flipZoverride,1
;   toolheadOffsets,0,0|0,0|0,0|0,0|0,0|0,0
;   overrideFirmwareConfiguration,1
;   firmwareTypeOverride,RepRap (Marlin/Repetier/Sprinter)
;   GPXconfigOverride,r2
;   baudRateOverride,250000
;   overridePrinterModels,0
;   printerModelsOverride
;   startingGcode,M907 E1400 ; increase extruder current,G28 ; home all axes,G1 X20 Y10 F3000 ; bring extruder to front,G92 E0 ; zero the extruded length,G1 Z1 ; lower,G1 X35 E30 F225 ; purge nozzle with 30mm of filament,G1 X45 Y20 F2100,G92 E0 ; zero the extruded length again
;   layerChangeGcode,
;   retractionGcode,
;   toolChangeGcode,
;   endingGcode,G28 X0 ; home the X-axis,M104 S0 ; turn off heaters,M140 S0 ; turn off bed,M84 ; disable motors
;   exportFileFormat,gcode
;   celebration,0
;   celebrationSong,Random Song
;   postProcessing,
;   defaultSpeed,2000
;   outlineUnderspeed,0.85
;   solidInfillUnderspeed,0.7
;   supportUnderspeed,0.7
;   rapidXYspeed,6000
;   rapidZspeed,1000
;   minBridgingArea,5
;   bridgingExtraInflation,0
;   bridgingExtrusionMultiplier,1
;   bridgingSpeedMultiplier,0.5
;   useFixedBridgingAngle,0
;   fixedBridgingAngle,0
;   applyBridgingToPerimeters,0
;   filamentDiameters,2.85|2.85|2.85|2.85|2.85|2.85
;   filamentPricesPerKg,46|46|46|46|46|46
;   filamentDensities,1.25|1.25|1.25|1.25|1.25|1.25
;   useMinPrintHeight,0
;   minPrintHeight,0
;   useMaxPrintHeight,0
;   maxPrintHeight,6
;   useDiaphragm,0
;   diaphragmLayerInterval,20
;   robustSlicing,1
;   mergeAllIntoSolid,0
;   onlyRetractWhenCrossingOutline,0
;   retractBetweenLayers,0
;   useRetractionMinTravel,1
;   retractionMinTravel,0.02
;   retractWhileWiping,0
;   onlyWipeOutlines,0
;   avoidCrossingOutline,0
;   maxMovementDetourFactor,3
;   toolChangeRetractionDistance,12
;   toolChangeExtraRestartDistance,-0.5
;   toolChangeRetractionSpeed,600
;   externalThinWallType,0
;   internalThinWallType,2
;   thinWallAllowedOverlapPercentage,10
;   singleExtrusionMinLength,1
;   singleExtrusionMinPrintingWidthPercentage,50
;   singleExtrusionMaxPrintingWidthPercentage,200
;   singleExtrusionEndpointExtension,0.2
;   horizontalSizeCompensation,0
G90
M82
M106 S204
M140 S115
M190 S115
M104 S265 T0
M109 S265 T0
M907 E1400 ; increase extruder current
G28 ; home all axes
G1 X20 Y10 F3000 ; bring extruder to front
G92 E0 ; zero the extruded length
G1 Z1 ; lower
G1 X35 E30 F225 ; purge nozzle with 30mm of filament
G1 X45 Y20 F2100
G92 E0 ; zero the extruded length again
; process Process1
; layer 1, Z = 0.140
T0
G92 E0.0000
G1 E-6.0000 F2500
; feature skirt
; tool H0.140 W0.432
G1 Z0.140 F1000
G1 X65.805 Y95.994 F6000
G1 E0.0000 F2500
G92 E0.0000
G1 X65.832 Y95.907 E0.0009 F1000
G1 X66.488 Y93.974 E0.0202
G1 X66.519 Y93.888 E0.0211
G1 X67.273 Y91.927 E0.0410
G1 X67.307 Y91.844 E0.0418
G1 X68.088 Y90.024 E0.0606
G1 X68.125 Y89.943 E0.0615
G1 X69.002 Y88.101 E0.0808
G1 X69.042 Y88.020 E0.0817
G1 X69.990 Y86.212 E0.1010
G1 X70.035 Y86.131 E0.1019
G1 X71.083 Y84.312 E0.1218
G1 X71.130 Y84.235 E0.1227
G1 X72.185 Y82.558 E0.1414
G1 X72.234 Y82.484 E0.1423
G1 X73.386 Y80.800 E0.1616
G1 X73.440 Y80.725 E0.1625
G1 X74.694 Y79.040 E0.1824
G1 X74.749 Y78.969 E0.1833
G1 X75.992 Y77.427 E0.2020
G1 X76.050 Y77.358 E0.2029
G1 X77.390 Y75.821 E0.2222
G1 X77.451 Y75.754 E0.2231
G1 X78.852 Y74.269 E0.2424
G1 X78.916 Y74.203 E0.2433
G1 X80.416 Y72.734 E0.2632
G1 X80.482 Y72.672 E0.2641
G1 X81.950 Y71.342 E0.2829
G1 X82.017 Y71.283 E0.2837
G1 X83.580 Y69.973 E0.3030
G1 X83.651 Y69.916 E0.3039
G1 X85.265 Y68.667 E0.3233
G1 X85.339 Y68.612 E0.3241
G1 X87.050 Y67.393 E0.3440
G1 X87.124 Y67.342 E0.3449
G1 X88.781 Y66.257 E0.3637
G1 X88.856 Y66.209 E0.3645
G1 X90.604 Y65.158 E0.3839
G1 X90.683 Y65.112 E0.3847
G1 X92.470 Y64.129 E0.4041
G1 X92.551 Y64.087 E0.4049
G1 X94.376 Y63.175 E0.4243
G1 X94.457 Y63.136 E0.4251
G1 X96.317 Y62.295 E0.4445
G1 X96.400 Y62.259 E0.4453
G1 X98.290 Y61.492 E0.4647
G1 X98.375 Y61.459 E0.4655
G1 X100.294 Y60.766 E0.4849
G1 X100.380 Y60.737 E0.4857
G1 X102.324 Y60.119 E0.5051
G1 X102.411 Y60.093 E0.5059
G1 X104.379 Y59.551 E0.5253
G1 X104.468 Y59.529 E0.5262
G1 X106.514 Y59.052 E0.5461
G1 X106.602 Y59.033 E0.5469
G1 X108.547 Y58.659 E0.5657
G1 X108.635 Y58.643 E0.5665
G1 X110.651 Y58.335 E0.5859
G1 X110.741 Y58.323 E0.5867
G1 X112.768 Y58.094 E0.6061
G1 X112.859 Y58.085 E0.6069
G1 X114.893 Y57.935 E0.6263
G1 X114.984 Y57.930 E0.6271
G1 X117.023 Y57.859 E0.6465
G1 X117.114 Y57.858 E0.6474
G1 X119.154 Y57.867 E0.6667
G1 X119.245 Y57.869 E0.6676
G1 X121.283 Y57.957 E0.6869
G1 X121.374 Y57.963 E0.6878
G1 X123.407 Y58.130 E0.7071
G1 X123.497 Y58.140 E0.7080
G1 X125.523 Y58.387 E0.7273
G1 X125.614 Y58.400 E0.7282
G1 X127.688 Y58.736 E0.7481
G1 X127.779 Y58.753 E0.7490
G1 X129.779 Y59.159 E0.7683
G1 X129.867 Y59.179 E0.7692
G1 X131.849 Y59.663 E0.7885
G1 X131.937 Y59.686 E0.7894
G1 X133.899 Y60.247 E0.8087
G1 X133.985 Y60.273 E0.8096
G1 X135.924 Y60.910 E0.8289
G1 X136.009 Y60.940 E0.8298
G1 X137.921 Y61.652 E0.8491
G1 X138.006 Y61.685 E0.8500
G1 X139.889 Y62.471 E0.8693
G1 X139.972 Y62.508 E0.8702
G1 X141.822 Y63.367 E0.8895
G1 X141.904 Y63.406 E0.8904
G1 X143.720 Y64.337 E0.9097
G1 X143.800 Y64.379 E0.9106
G1 X145.577 Y65.379 E0.9299
G1 X145.654 Y65.425 E0.9308
G1 X147.342 Y66.461 E0.9496
G1 X147.418 Y66.510 E0.9504
G1 X149.163 Y67.678 E0.9703
G1 X149.239 Y67.731 E0.9712
G1 X150.889 Y68.933 E0.9906
G1 X150.961 Y68.987 E0.9914
G1 X152.562 Y70.252 E1.0108
G1 X152.632 Y70.309 E1.0116
G1 X154.183 Y71.635 E1.0310
G1 X154.251 Y71.696 E1.0318
G1 X155.749 Y73.081 E1.0512
G1 X155.814 Y73.144 E1.0520
G1 X157.257 Y74.587 E1.0714
G1 X157.320 Y74.652 E1.0722
G1 X158.705 Y76.150 E1.0916
G1 X158.765 Y76.218 E1.0924
G1 X160.091 Y77.768 E1.1118
G1 X160.149 Y77.838 E1.1126
G1 X161.413 Y79.440 E1.1320
G1 X161.468 Y79.512 E1.1328
G1 X162.669 Y81.161 E1.1522
G1 X162.720 Y81.234 E1.1530
G1 X163.823 Y82.879 E1.1718
G1 X163.872 Y82.955 E1.1727
G1 X164.974 Y84.743 E1.1926
G1 X165.020 Y84.822 E1.1934
G1 X166.021 Y86.601 E1.2128
G1 X166.064 Y86.681 E1.2136
G1 X166.994 Y88.497 E1.2330
G1 X167.034 Y88.578 E1.2338
G1 X167.893 Y90.429 E1.2532
G1 X167.929 Y90.512 E1.2541
G1 X168.715 Y92.395 E1.2734
G1 X168.748 Y92.479 E1.2743
G1 X168.999 Y93.152 E1.2811
G1 X173.895 Y93.152 E1.3275
G1 X176.618 Y95.875 E1.3640
G1 X176.618 Y97.652 E1.3808
G1 X183.825 Y97.652 E1.4492
G1 X186.548 Y100.375 E1.4857
G1 X186.548 Y111.425 E1.5904
G1 X185.473 Y112.500 E1.6048
G1 X186.548 Y113.575 E1.6193
G1 X186.548 Y124.625 E1.7240
G1 X183.825 Y127.348 E1.7605
G1 X176.618 Y127.348 E1.8288
G1 X176.618 Y129.125 E1.8457
G1 X173.895 Y131.848 E1.8822
G1 X168.998 Y131.848 E1.9286
G1 X168.725 Y132.578 E1.9360
G1 X168.692 Y132.662 E1.9369
G1 X167.929 Y134.489 E1.9557
G1 X167.892 Y134.571 E1.9565
G1 X167.034 Y136.422 E1.9758
G1 X166.994 Y136.503 E1.9767
G1 X166.064 Y138.319 E1.9960
G1 X166.021 Y138.399 E1.9969
G1 X165.020 Y140.178 E2.0163
G1 X164.974 Y140.257 E2.0171
G1 X163.872 Y142.045 E2.0370
G1 X163.823 Y142.121 E2.0379
G1 X162.720 Y143.766 E2.0567
G1 X162.669 Y143.839 E2.0575
G1 X161.468 Y145.488 E2.0769
G1 X161.413 Y145.560 E2.0777
G1 X160.149 Y147.162 E2.0971
G1 X160.091 Y147.232 E2.0979
G1 X158.765 Y148.783 E2.1173
G1 X158.703 Y148.852 E2.1181
G1 X157.277 Y150.393 E2.1381
G1 X157.214 Y150.458 E2.1389
G1 X155.813 Y151.857 E2.1577
G1 X155.748 Y151.919 E2.1585
G1 X154.251 Y153.304 E2.1779
G1 X154.183 Y153.365 E2.1787
G1 X152.632 Y154.691 E2.1981
G1 X152.562 Y154.748 E2.1989
G1 X150.960 Y156.013 E2.2183
G1 X150.887 Y156.069 E2.2192
G1 X149.189 Y157.304 E2.2391
G1 X149.114 Y157.356 E2.2399
G1 X147.469 Y158.457 E2.2587
G1 X147.393 Y158.506 E2.2595
G1 X145.656 Y159.574 E2.2789
G1 X145.578 Y159.620 E2.2797
G1 X143.800 Y160.621 E2.2991
G1 X143.720 Y160.663 E2.2999
G1 X141.904 Y161.594 E2.3193
G1 X141.822 Y161.633 E2.3201
G1 X139.972 Y162.492 E2.3395
G1 X139.889 Y162.529 E2.3404
G1 X138.006 Y163.315 E2.3597
G1 X137.921 Y163.348 E2.3606
G1 X136.009 Y164.060 E2.3799
G1 X135.924 Y164.090 E2.3808
G1 X133.985 Y164.727 E2.4001
G1 X133.899 Y164.753 E2.4010
G1 X131.937 Y165.314 E2.4203
G1 X131.849 Y165.337 E2.4212
G1 X129.867 Y165.821 E2.4405
G1 X129.779 Y165.841 E2.4414
G1 X127.779 Y166.247 E2.4607
G1 X127.690 Y166.264 E2.4616
G1 X125.676 Y166.592 E2.4809
G1 X125.587 Y166.604 E2.4818
G1 X123.561 Y166.854 E2.5011
G1 X123.471 Y166.863 E2.5020
G1 X121.438 Y167.033 E2.5213
G1 X121.348 Y167.039 E2.5222
G1 X119.309 Y167.130 E2.5415
G1 X119.219 Y167.132 E2.5424
G1 X117.178 Y167.143 E2.5617
G1 X117.086 Y167.142 E2.5626
G1 X114.986 Y167.070 E2.5825
G1 X114.894 Y167.065 E2.5834
G1 X112.859 Y166.915 E2.6027
G1 X112.768 Y166.906 E2.6036
G1 X110.741 Y166.677 E2.6229
G1 X110.651 Y166.665 E2.6238
G1 X108.634 Y166.356 E2.6431
G1 X108.545 Y166.341 E2.6440
G1 X106.542 Y165.954 E2.6633
G1 X106.453 Y165.935 E2.6642
G1 X104.466 Y165.471 E2.6836
G1 X104.378 Y165.448 E2.6844
G1 X102.411 Y164.907 E2.7038
G1 X102.324 Y164.881 E2.7046
G1 X100.380 Y164.263 E2.7240
G1 X100.294 Y164.234 E2.7248
G1 X98.375 Y163.541 E2.7442
G1 X98.290 Y163.508 E2.7450
G1 X96.400 Y162.741 E2.7644
G1 X96.317 Y162.705 E2.7652
G1 X94.457 Y161.864 E2.7846
G1 X94.376 Y161.825 E2.7854
G1 X92.551 Y160.913 E2.8048
G1 X92.470 Y160.871 E2.8056
G1 X90.683 Y159.888 E2.8250
G1 X90.604 Y159.842 E2.8258
G1 X88.856 Y158.790 E2.8452
G1 X88.779 Y158.742 E2.8460
G1 X87.073 Y157.623 E2.8654
G1 X86.998 Y157.572 E2.8662
G1 X85.337 Y156.387 E2.8856
G1 X85.265 Y156.333 E2.8864
G1 X83.651 Y155.084 E2.9058
G1 X83.580 Y155.027 E2.9066
G1 X82.017 Y153.716 E2.9260
G1 X81.949 Y153.657 E2.9268
G1 X80.437 Y152.286 E2.9462
G1 X80.371 Y152.224 E2.9470
G1 X78.915 Y150.795 E2.9664
G1 X78.851 Y150.730 E2.9673
G1 X77.451 Y149.246 E2.9866
G1 X77.390 Y149.179 E2.9875
G1 X76.049 Y147.641 E3.0068
G1 X75.991 Y147.572 E3.0077
G1 X74.711 Y145.983 E3.0270
G1 X74.656 Y145.911 E3.0279
G1 X73.438 Y144.273 E3.0472
G1 X73.386 Y144.200 E3.0481
G1 X72.233 Y142.516 E3.0674
G1 X72.184 Y142.440 E3.0683
G1 X71.098 Y140.713 E3.0876
G1 X71.051 Y140.635 E3.0885
G1 X70.034 Y138.867 E3.1078
G1 X69.990 Y138.787 E3.1087
G1 X69.042 Y136.980 E3.1280
G1 X69.002 Y136.899 E3.1289
G1 X68.125 Y135.057 E3.1482
G1 X68.087 Y134.974 E3.1491
G1 X67.283 Y133.099 E3.1684
G1 X67.249 Y133.015 E3.1693
G1 X66.519 Y131.110 E3.1886
G1 X66.488 Y131.025 E3.1895
G1 X65.832 Y129.093 E3.2088
G1 X65.805 Y129.006 E3.2097
G1 X65.225 Y127.050 E3.2290
G1 X65.201 Y126.963 E3.2299
G1 X65.121 Y126.648 E3.2330
G1 X57.559 Y126.648 E3.3047
G1 X57.476 Y126.647 E3.3054
G1 X56.673 Y126.618 E3.3131
G1 X56.508 Y126.606 E3.3146
G1 X55.669 Y126.516 E3.3226
G1 X55.504 Y126.492 E3.3242
G1 X54.674 Y126.342 E3.3322
G1 X54.512 Y126.307 E3.3338
G1 X53.694 Y126.098 E3.3418
G1 X53.534 Y126.052 E3.3434
G1 X52.733 Y125.785 E3.3514
G1 X52.578 Y125.727 E3.3529
G1 X51.798 Y125.404 E3.3609
G1 X51.647 Y125.335 E3.3625
G1 X50.892 Y124.957 E3.3705
G1 X50.747 Y124.878 E3.3721
G1 X50.730 Y124.868 E3.3723
G1 X48.355 Y124.868 E3.3948
G1 X43.632 Y120.145 E3.4581
G1 X43.632 Y114.730 E3.5094
G1 X43.608 Y114.596 E3.5107
G1 X43.584 Y114.431 E3.5123
G1 X43.494 Y113.592 E3.5203
G1 X43.482 Y113.427 E3.5219
G1 X43.452 Y112.583 E3.5299
G1 X43.452 Y112.417 E3.5315
G1 X43.482 Y111.573 E3.5395
G1 X43.494 Y111.408 E3.5410
G1 X43.584 Y110.569 E3.5490
G1 X43.608 Y110.404 E3.5506
G1 X43.632 Y110.270 E3.5519
G1 X43.632 Y104.855 E3.6033
G1 X48.355 Y100.132 E3.6666
G1 X50.731 Y100.132 E3.6891
G1 X50.747 Y100.122 E3.6893
G1 X50.892 Y100.043 E3.6908
G1 X51.647 Y99.665 E3.6989
G1 X51.798 Y99.596 E3.7004
G1 X52.578 Y99.273 E3.7084
G1 X52.734 Y99.215 E3.7100
G1 X53.534 Y98.948 E3.7180
G1 X53.694 Y98.902 E3.7196
G1 X54.512 Y98.693 E3.7276
G1 X54.674 Y98.658 E3.7292
G1 X55.504 Y98.508 E3.7372
G1 X55.669 Y98.484 E3.7387
G1 X56.508 Y98.394 E3.7467
G1 X56.673 Y98.382 E3.7483
G1 X57.476 Y98.353 E3.7559
G1 X57.559 Y98.352 E3.7567
G1 X65.120 Y98.352 E3.8284
G1 X65.201 Y98.036 E3.8315
G1 X65.225 Y97.949 E3.8323
G1 X65.805 Y95.994 E3.8517
G92 E0.0000
G1 E-6.0000 F2500
G1 X65.640 Y98.068 F6000
G1 E0.0000 F2500
G92 E0.0000
