; G-Code generated by Simplify3D(R) Version 4.1.2
; Jun 28, 2019 at 8:31:32 AM
; Settings Summary
;   processName,Process1
;   applyToModels,bouchon
;   profileName,Ultimaker 2 PC-Max (modified)
;   profileVersion,2019-05-27 08:36:39
;   baseProfile,Ultimaker 2
;   printMaterial,
;   printQuality,
;   printExtruders,
;   extruderName,Primary Extruder
;   extruderToolheadNumber,0
;   extruderDiameter,0.4
;   extruderAutoWidth,1
;   extruderWidth,0.48
;   extrusionMultiplier,1
;   extruderUseRetract,1
;   extruderRetractionDistance,6
;   extruderExtraRestartDistance,0
;   extruderRetractionZLift,0
;   extruderRetractionSpeed,2500
;   extruderUseCoasting,1
;   extruderCoastingDistance,1
;   extruderUseWipe,0
;   extruderWipeDistance,2
;   primaryExtruder,0
;   layerHeight,0.2
;   topSolidLayers,3
;   bottomSolidLayers,2
;   perimeterOutlines,2
;   printPerimetersInsideOut,1
;   startPointOption,3
;   startPointOriginX,110
;   startPointOriginY,110
;   sequentialIslands,0
;   spiralVaseMode,0
;   firstLayerHeightPercentage,70
;   firstLayerWidthPercentage,90
;   firstLayerUnderspeed,0.5
;   useRaft,0
;   raftExtruder,0
;   raftTopLayers,3
;   raftBaseLayers,2
;   raftOffset,3
;   raftSeparationDistance,0.14
;   raftTopInfill,100
;   aboveRaftSpeedMultiplier,0.3
;   useSkirt,1
;   skirtExtruder,0
;   skirtLayers,1
;   skirtOutlines,2
;   skirtOffset,4
;   usePrimePillar,0
;   primePillarExtruder,999
;   primePillarWidth,12
;   primePillarLocation,7
;   primePillarSpeedMultiplier,1
;   useOozeShield,0
;   oozeShieldExtruder,999
;   oozeShieldOffset,2
;   oozeShieldOutlines,1
;   oozeShieldSidewallShape,1
;   oozeShieldSidewallAngle,30
;   oozeShieldSpeedMultiplier,1
;   infillExtruder,0
;   internalInfillPattern,Rectilinear
;   externalInfillPattern,Rectilinear
;   infillPercentage,20
;   outlineOverlapPercentage,35
;   infillExtrusionWidthPercentage,125
;   minInfillLength,3
;   infillLayerInterval,1
;   internalInfillAngles,45,-45
;   overlapInternalInfillAngles,0
;   externalInfillAngles,45,-45
;   generateSupport,1
;   supportExtruder,0
;   supportInfillPercentage,35
;   supportExtraInflation,2
;   supportBaseLayers,0
;   denseSupportExtruder,0
;   denseSupportLayers,0
;   denseSupportInfillPercentage,70
;   supportLayerInterval,1
;   supportHorizontalPartOffset,0.3
;   supportUpperSeparationLayers,1
;   supportLowerSeparationLayers,1
;   supportType,1
;   supportGridSpacing,1
;   maxOverhangAngle,50
;   supportAngles,45
;   temperatureName,Primary Extruder,Heated Build Platform
;   temperatureNumber,0,1
;   temperatureSetpointCount,1,1
;   temperatureSetpointLayers,1,1
;   temperatureSetpointTemperatures,265,115
;   temperatureStabilizeAtStartup,1,1
;   temperatureHeatedBed,0,1
;   fanLayers,1
;   fanSpeeds,80
;   blipFanToFullPower,0
;   adjustSpeedForCooling,1
;   minSpeedLayerTime,15
;   minCoolingSpeedSlowdown,20
;   increaseFanForCooling,0
;   minFanLayerTime,10
;   maxCoolingFanSpeed,30
;   increaseFanForBridging,1
;   bridgingFanSpeed,100
;   use5D,1
;   relativeEdistances,0
;   allowEaxisZeroing,1
;   independentExtruderAxes,0
;   includeM10123,0
;   stickySupport,1
;   applyToolheadOffsets,0
;   gcodeXoffset,0
;   gcodeYoffset,0
;   gcodeZoffset,0
;   overrideMachineDefinition,1
;   machineTypeOverride,0
;   strokeXoverride,230
;   strokeYoverride,225
;   strokeZoverride,205
;   originOffsetXoverride,0
;   originOffsetYoverride,0
;   originOffsetZoverride,0
;   homeXdirOverride,-1
;   homeYdirOverride,-1
;   homeZdirOverride,-1
;   flipXoverride,1
;   flipYoverride,-1
;   flipZoverride,1
;   toolheadOffsets,0,0|0,0|0,0|0,0|0,0|0,0
;   overrideFirmwareConfiguration,1
;   firmwareTypeOverride,RepRap (Marlin/Repetier/Sprinter)
;   GPXconfigOverride,r2
;   baudRateOverride,250000
;   overridePrinterModels,0
;   printerModelsOverride
;   startingGcode,M907 E1400 ; increase extruder current,G28 ; home all axes,G1 X20 Y10 F3000 ; bring extruder to front,G92 E0 ; zero the extruded length,G1 Z1 ; lower,G1 X35 E30 F225 ; purge nozzle with 30mm of filament,G1 X45 Y20 F2100,G92 E0 ; zero the extruded length again
;   layerChangeGcode,
;   retractionGcode,
;   toolChangeGcode,
;   endingGcode,G28 X0 ; home the X-axis,M104 S0 ; turn off heaters,M140 S0 ; turn off bed,M84 ; disable motors
;   exportFileFormat,gcode
;   celebration,0
;   celebrationSong,Random Song
;   postProcessing,
;   defaultSpeed,2000
;   outlineUnderspeed,0.85
;   solidInfillUnderspeed,0.7
;   supportUnderspeed,0.7
;   rapidXYspeed,6000
;   rapidZspeed,1000
;   minBridgingArea,5
;   bridgingExtraInflation,0
;   bridgingExtrusionMultiplier,1
;   bridgingSpeedMultiplier,0.5
;   useFixedBridgingAngle,0
;   fixedBridgingAngle,0
;   applyBridgingToPerimeters,0
;   filamentDiameters,2.85|2.85|2.85|2.85|2.85|2.85
;   filamentPricesPerKg,46|46|46|46|46|46
;   filamentDensities,1.25|1.25|1.25|1.25|1.25|1.25
;   useMinPrintHeight,0
;   minPrintHeight,0
;   useMaxPrintHeight,0
;   maxPrintHeight,6
;   useDiaphragm,0
;   diaphragmLayerInterval,20
;   robustSlicing,1
;   mergeAllIntoSolid,0
;   onlyRetractWhenCrossingOutline,0
;   retractBetweenLayers,0
;   useRetractionMinTravel,1
;   retractionMinTravel,0.02
;   retractWhileWiping,0
;   onlyWipeOutlines,0
;   avoidCrossingOutline,0
;   maxMovementDetourFactor,3
;   toolChangeRetractionDistance,12
;   toolChangeExtraRestartDistance,-0.5
;   toolChangeRetractionSpeed,600
;   externalThinWallType,0
;   internalThinWallType,2
;   thinWallAllowedOverlapPercentage,10
;   singleExtrusionMinLength,1
;   singleExtrusionMinPrintingWidthPercentage,50
;   singleExtrusionMaxPrintingWidthPercentage,200
;   singleExtrusionEndpointExtension,0.2
;   horizontalSizeCompensation,0
G90
M82
M106 S204
M140 S115
M190 S115
M104 S265 T0
M109 S265 T0
M907 E1400 ; increase extruder current
G28 ; home all axes
G1 X20 Y10 F3000 ; bring extruder to front
G92 E0 ; zero the extruded length
G1 Z1 ; lower
G1 X35 E30 F225 ; purge nozzle with 30mm of filament
G1 X45 Y20 F2100
G92 E0 ; zero the extruded length again
; process Process1
; layer 1, Z = 0.140
T0
G92 E0.0000
G1 E-6.0000 F2500
; feature skirt
; tool H0.140 W0.432
G1 Z0.140 F1000
G1 X66.641 Y87.589 F6000
G1 E0.0000 F2500
G92 E0.0000
G1 X67.541 Y85.914 E0.0180 F1000
G1 X67.583 Y85.840 E0.0188
G1 X68.544 Y84.198 E0.0369
G1 X68.588 Y84.126 E0.0377
G1 X69.609 Y82.520 E0.0557
G1 X69.656 Y82.450 E0.0565
G1 X70.727 Y80.893 E0.0744
G1 X70.776 Y80.825 E0.0752
G1 X71.918 Y79.288 E0.0934
G1 X71.970 Y79.220 E0.0942
G1 X73.160 Y77.736 E0.1122
G1 X73.214 Y77.670 E0.1130
G1 X73.392 Y77.465 E0.1156
G1 X72.682 Y76.755 E0.1251
G1 X72.715 Y72.858 E0.1621
G1 X75.453 Y70.213 E0.1982
G1 X75.511 Y70.159 E0.1989
G1 X76.919 Y68.888 E0.2169
G1 X76.979 Y68.835 E0.2176
G1 X78.430 Y67.613 E0.2356
G1 X78.492 Y67.563 E0.2364
G1 X79.984 Y66.391 E0.2544
G1 X80.048 Y66.343 E0.2551
G1 X81.579 Y65.222 E0.2731
G1 X81.644 Y65.176 E0.2739
G1 X83.213 Y64.108 E0.2919
G1 X83.279 Y64.065 E0.2926
G1 X84.883 Y63.051 E0.3106
G1 X84.951 Y63.010 E0.3114
G1 X86.589 Y62.052 E0.3294
G1 X86.658 Y62.013 E0.3301
G1 X88.328 Y61.111 E0.3481
G1 X88.398 Y61.075 E0.3488
G1 X90.098 Y60.231 E0.3668
G1 X90.170 Y60.197 E0.3676
G1 X91.897 Y59.411 E0.3856
G1 X91.970 Y59.380 E0.3863
G1 X93.723 Y58.653 E0.4043
G1 X93.797 Y58.624 E0.4051
G1 X95.574 Y57.958 E0.4231
G1 X95.649 Y57.932 E0.4238
G1 X97.447 Y57.327 E0.4418
G1 X97.523 Y57.303 E0.4426
G1 X99.341 Y56.760 E0.4606
G1 X99.418 Y56.738 E0.4613
G1 X101.253 Y56.258 E0.4793
G1 X101.330 Y56.239 E0.4801
G1 X103.181 Y55.821 E0.4980
G1 X103.259 Y55.805 E0.4988
G1 X105.123 Y55.451 E0.5168
G1 X105.202 Y55.437 E0.5175
G1 X107.077 Y55.147 E0.5355
G1 X107.156 Y55.136 E0.5363
G1 X109.040 Y54.910 E0.5543
G1 X109.119 Y54.901 E0.5550
G1 X111.009 Y54.740 E0.5730
G1 X111.088 Y54.734 E0.5738
G1 X112.984 Y54.637 E0.5918
G1 X113.063 Y54.634 E0.5925
G1 X116.869 Y54.569 E0.6286
G1 X119.648 Y57.301 E0.6655
G1 X119.648 Y58.308 E0.6751
G1 X120.907 Y58.424 E0.6871
G1 X120.992 Y58.433 E0.6879
G1 X122.878 Y58.676 E0.7059
G1 X122.962 Y58.688 E0.7067
G1 X124.839 Y58.999 E0.7248
G1 X124.922 Y59.015 E0.7256
G1 X126.786 Y59.394 E0.7436
G1 X126.869 Y59.413 E0.7444
G1 X128.718 Y59.860 E0.7624
G1 X128.800 Y59.882 E0.7632
G1 X130.631 Y60.396 E0.7813
G1 X130.713 Y60.421 E0.7821
G1 X132.524 Y61.002 E0.8001
G1 X132.604 Y61.029 E0.8009
G1 X134.393 Y61.676 E0.8189
G1 X134.472 Y61.707 E0.8198
G1 X136.236 Y62.418 E0.8378
G1 X136.314 Y62.452 E0.8386
G1 X138.051 Y63.227 E0.8566
G1 X138.128 Y63.263 E0.8574
G1 X139.835 Y64.102 E0.8755
G1 X139.911 Y64.141 E0.8763
G1 X141.586 Y65.041 E0.8943
G1 X141.660 Y65.083 E0.8951
G1 X143.302 Y66.044 E0.9131
G1 X143.374 Y66.088 E0.9139
G1 X144.980 Y67.109 E0.9320
G1 X145.050 Y67.156 E0.9328
G1 X146.617 Y68.234 E0.9508
G1 X146.686 Y68.283 E0.9516
G1 X148.213 Y69.418 E0.9697
G1 X148.280 Y69.470 E0.9705
G1 X149.764 Y70.660 E0.9885
G1 X149.830 Y70.714 E0.9893
G1 X151.269 Y71.958 E1.0073
G1 X151.332 Y72.014 E1.0081
G1 X152.726 Y73.309 E1.0262
G1 X152.787 Y73.368 E1.0270
G1 X154.132 Y74.713 E1.0450
G1 X154.191 Y74.774 E1.0458
G1 X155.486 Y76.168 E1.0638
G1 X155.542 Y76.231 E1.0647
G1 X156.786 Y77.670 E1.0827
G1 X156.840 Y77.736 E1.0835
G1 X158.030 Y79.220 E1.1015
G1 X158.082 Y79.287 E1.1023
G1 X159.217 Y80.814 E1.1204
G1 X159.266 Y80.883 E1.1212
G1 X160.344 Y82.450 E1.1392
G1 X160.391 Y82.520 E1.1400
G1 X161.412 Y84.126 E1.1580
G1 X161.456 Y84.198 E1.1588
G1 X162.417 Y85.840 E1.1769
G1 X162.458 Y85.914 E1.1777
G1 X163.359 Y87.589 E1.1957
G1 X163.398 Y87.665 E1.1965
G1 X164.237 Y89.372 E1.2146
G1 X164.273 Y89.449 E1.2154
G1 X165.048 Y91.186 E1.2334
G1 X165.082 Y91.264 E1.2342
G1 X165.793 Y93.028 E1.2522
G1 X165.824 Y93.107 E1.2530
G1 X166.471 Y94.896 E1.2711
G1 X166.498 Y94.976 E1.2719
G1 X167.079 Y96.787 E1.2899
G1 X167.104 Y96.869 E1.2907
G1 X167.618 Y98.700 E1.3087
G1 X167.640 Y98.782 E1.3096
G1 X168.087 Y100.631 E1.3276
G1 X168.106 Y100.714 E1.3284
G1 X168.485 Y102.578 E1.3464
G1 X168.501 Y102.661 E1.3472
G1 X168.812 Y104.538 E1.3653
G1 X168.824 Y104.622 E1.3661
G1 X169.067 Y106.508 E1.3841
G1 X169.076 Y106.593 E1.3849
G1 X169.250 Y108.487 E1.4029
G1 X169.256 Y108.572 E1.4037
G1 X169.360 Y110.471 E1.4218
G1 X169.363 Y110.556 E1.4226
G1 X169.398 Y112.458 E1.4406
G1 X169.398 Y112.542 E1.4414
G1 X169.363 Y114.444 E1.4595
G1 X169.360 Y114.529 E1.4603
G1 X169.256 Y116.428 E1.4783
G1 X169.250 Y116.513 E1.4791
G1 X169.076 Y118.407 E1.4971
G1 X169.067 Y118.492 E1.4979
G1 X168.824 Y120.378 E1.5160
G1 X168.812 Y120.462 E1.5168
G1 X168.501 Y122.339 E1.5348
G1 X168.485 Y122.422 E1.5356
G1 X168.106 Y124.286 E1.5536
G1 X168.087 Y124.369 E1.5545
G1 X167.640 Y126.218 E1.5725
G1 X167.618 Y126.300 E1.5733
G1 X167.104 Y128.131 E1.5913
G1 X167.079 Y128.213 E1.5921
G1 X166.498 Y130.024 E1.6102
G1 X166.471 Y130.104 E1.6110
G1 X165.824 Y131.893 E1.6290
G1 X165.793 Y131.972 E1.6298
G1 X165.082 Y133.736 E1.6478
G1 X165.048 Y133.814 E1.6486
G1 X164.273 Y135.551 E1.6667
G1 X164.237 Y135.628 E1.6675
G1 X163.398 Y137.335 E1.6855
G1 X163.359 Y137.411 E1.6863
G1 X162.458 Y139.086 E1.7044
G1 X162.417 Y139.160 E1.7052
G1 X161.456 Y140.802 E1.7232
G1 X161.412 Y140.874 E1.7240
G1 X160.391 Y142.480 E1.7420
G1 X160.344 Y142.550 E1.7428
G1 X159.266 Y144.117 E1.7609
G1 X159.217 Y144.186 E1.7617
G1 X158.082 Y145.713 E1.7797
G1 X158.030 Y145.780 E1.7805
G1 X156.840 Y147.264 E1.7985
G1 X156.786 Y147.330 E1.7994
G1 X156.608 Y147.535 E1.8019
G1 X157.318 Y148.245 E1.8114
G1 X157.285 Y152.142 E1.8484
G1 X154.547 Y154.787 E1.8845
G1 X154.489 Y154.841 E1.8852
G1 X153.081 Y156.112 E1.9032
G1 X153.021 Y156.165 E1.9040
G1 X151.570 Y157.387 E1.9220
G1 X151.508 Y157.437 E1.9227
G1 X150.016 Y158.609 E1.9407
G1 X149.952 Y158.657 E1.9415
G1 X148.421 Y159.778 E1.9594
G1 X148.356 Y159.824 E1.9602
G1 X146.787 Y160.891 E1.9782
G1 X146.721 Y160.935 E1.9789
G1 X145.117 Y161.949 E1.9969
G1 X145.049 Y161.990 E1.9977
G1 X143.411 Y162.948 E2.0157
G1 X143.342 Y162.987 E2.0164
G1 X141.672 Y163.888 E2.0344
G1 X141.602 Y163.925 E2.0352
G1 X139.902 Y164.769 E2.0532
G1 X139.830 Y164.803 E2.0539
G1 X138.103 Y165.589 E2.0719
G1 X138.030 Y165.620 E2.0727
G1 X136.277 Y166.347 E2.0906
G1 X136.203 Y166.376 E2.0914
G1 X134.426 Y167.042 E2.1094
G1 X134.351 Y167.068 E2.1101
G1 X132.553 Y167.673 E2.1281
G1 X132.477 Y167.697 E2.1289
G1 X130.659 Y168.240 E2.1469
G1 X130.582 Y168.262 E2.1476
G1 X128.747 Y168.742 E2.1656
G1 X128.670 Y168.761 E2.1664
G1 X126.819 Y169.179 E2.1844
G1 X126.741 Y169.195 E2.1851
G1 X124.877 Y169.549 E2.2031
G1 X124.798 Y169.563 E2.2039
G1 X122.923 Y169.853 E2.2218
G1 X122.844 Y169.864 E2.2226
G1 X120.960 Y170.090 E2.2406
G1 X120.881 Y170.099 E2.2413
G1 X118.991 Y170.260 E2.2593
G1 X118.912 Y170.266 E2.2601
G1 X117.016 Y170.363 E2.2781
G1 X116.937 Y170.366 E2.2788
G1 X113.131 Y170.431 E2.3149
G1 X110.352 Y167.699 E2.3519
G1 X110.352 Y166.692 E2.3614
G1 X109.093 Y166.576 E2.3734
G1 X109.008 Y166.567 E2.3742
G1 X107.122 Y166.324 E2.3922
G1 X107.038 Y166.312 E2.3930
G1 X105.161 Y166.001 E2.4111
G1 X105.078 Y165.985 E2.4119
G1 X103.214 Y165.606 E2.4299
G1 X103.131 Y165.587 E2.4307
G1 X101.282 Y165.140 E2.4488
G1 X101.200 Y165.118 E2.4496
G1 X99.369 Y164.604 E2.4676
G1 X99.287 Y164.579 E2.4684
G1 X97.476 Y163.998 E2.4864
G1 X97.396 Y163.971 E2.4872
G1 X95.607 Y163.324 E2.5053
G1 X95.528 Y163.293 E2.5061
G1 X93.764 Y162.582 E2.5241
G1 X93.686 Y162.548 E2.5249
G1 X91.949 Y161.773 E2.5429
G1 X91.872 Y161.737 E2.5438
G1 X90.165 Y160.898 E2.5618
G1 X90.089 Y160.859 E2.5626
G1 X88.414 Y159.958 E2.5806
G1 X88.340 Y159.917 E2.5814
G1 X86.698 Y158.956 E2.5995
G1 X86.626 Y158.912 E2.6003
G1 X85.020 Y157.891 E2.6183
G1 X84.950 Y157.844 E2.6191
G1 X83.383 Y156.766 E2.6371
G1 X83.314 Y156.717 E2.6379
G1 X81.787 Y155.582 E2.6560
G1 X81.720 Y155.530 E2.6568
G1 X80.236 Y154.340 E2.6748
G1 X80.170 Y154.286 E2.6756
G1 X78.731 Y153.042 E2.6937
G1 X78.668 Y152.986 E2.6945
G1 X77.274 Y151.691 E2.7125
G1 X77.213 Y151.632 E2.7133
G1 X75.868 Y150.287 E2.7313
G1 X75.809 Y150.226 E2.7321
G1 X74.514 Y148.832 E2.7502
G1 X74.458 Y148.769 E2.7510
G1 X73.214 Y147.330 E2.7690
G1 X73.160 Y147.264 E2.7698
G1 X71.970 Y145.780 E2.7878
G1 X71.918 Y145.713 E2.7887
G1 X70.783 Y144.186 E2.8067
G1 X70.734 Y144.117 E2.8075
G1 X69.656 Y142.550 E2.8255
G1 X69.609 Y142.480 E2.8263
G1 X68.588 Y140.874 E2.8444
G1 X68.544 Y140.802 E2.8452
G1 X67.583 Y139.160 E2.8632
G1 X67.541 Y139.086 E2.8640
G1 X66.641 Y137.411 E2.8820
G1 X66.602 Y137.335 E2.8828
G1 X65.763 Y135.628 E2.9009
G1 X65.727 Y135.551 E2.9017
G1 X64.952 Y133.814 E2.9197
G1 X64.918 Y133.736 E2.9205
G1 X64.207 Y131.972 E2.9386
G1 X64.176 Y131.893 E2.9394
G1 X63.529 Y130.104 E2.9574
G1 X63.502 Y130.024 E2.9582
G1 X62.921 Y128.213 E2.9762
G1 X62.896 Y128.131 E2.9770
G1 X62.382 Y126.300 E2.9951
G1 X62.360 Y126.218 E2.9959
G1 X61.913 Y124.369 E3.0139
G1 X61.894 Y124.286 E3.0147
G1 X61.515 Y122.422 E3.0327
G1 X61.499 Y122.339 E3.0336
G1 X61.188 Y120.462 E3.0516
G1 X61.175 Y120.378 E3.0524
G1 X60.933 Y118.492 E3.0704
G1 X60.924 Y118.407 E3.0712
G1 X60.750 Y116.513 E3.0893
G1 X60.744 Y116.428 E3.0901
G1 X60.640 Y114.529 E3.1081
G1 X60.637 Y114.444 E3.1089
G1 X60.602 Y112.542 E3.1269
G1 X60.602 Y112.458 E3.1277
G1 X60.637 Y110.556 E3.1458
G1 X60.640 Y110.471 E3.1466
G1 X60.744 Y108.572 E3.1646
G1 X60.750 Y108.487 E3.1654
G1 X60.924 Y106.593 E3.1835
G1 X60.933 Y106.508 E3.1843
G1 X61.175 Y104.622 E3.2023
G1 X61.188 Y104.538 E3.2031
G1 X61.499 Y102.661 E3.2211
G1 X61.515 Y102.578 E3.2219
G1 X61.894 Y100.714 E3.2400
G1 X61.913 Y100.631 E3.2408
G1 X62.360 Y98.782 E3.2588
G1 X62.382 Y98.700 E3.2596
